X:835
T: Trim Castle
C: BB
R: jig
Q: 1/8=320
M: 6/8
L: 1/8
K: G
D|"G"GFG dcB | "D7"DED cBA | "G"GFG d2 e | "A"^c2 e "D"d2 d |
"G"GFG dcB | "D7"DED cBA | "Em"BGD "C"E2 c | "D"AFA "G"G2 :|
d|"G"gfg d2 B | "C"cde "G"dBG | "C"cde "Am7"eag | "D"fd^c d2 e |
"Em"gfe "G"dcB | "C"cde "G"dBG | "Em"EFG "Am"ABc |"D"AFA "G"G2 :|
%%%%%%%%%%%%%%%%%%%%%%%%%%%%%%%%%%%%%%%%%%%
